X:1
T:Polka : The Other Clog
R:polka
S:Mary Bergin
Z:id:hn-polka-30
M:2/4
L:1/8
K:G
BG G>A|BG GB|AD FG|AB c/B/A|BG G>A|
BG GB|AD FA|AG G>A::Bd ce|dg B>d|dc A>e|ed B2|
Bd ce|dg B>d|dc AF|AG G2 :|
